X: 27701
T: Morning After Phil
R: reel
M: 4/4
K: Dmajor
ABde fa f/e/d|e3 f edBA|BFGA GGGF|GFGA GFED|
D2 AD GADA|AD GA GFE(D|D2) AD GAde|ff fg fedB:|
EABe d=cBA|A/B/=c BA B2 AG|EABd =cBAG|ABAG E3 D|
FFFD GGGD|AAAB F4|ABAG ABAG|1 F3 G FA F/E/D:|2 ABde fa f/e/d||

